app/img/fb-footer.svg

<svg width="38" height="39" viewBox="0 0 38 39" fill="none" xmlns="http://www.w3.org/2000/svg">
<path d="M38 19.5828C38 9.02524 29.4934 0.466675 19 0.466675C8.50658 0.466675 0 9.02524 0 19.5828C0 29.1242 6.94803 37.0326 16.0312 38.4667V25.1085H11.207V19.5828H16.0312V15.3713C16.0312 10.5803 18.8678 7.93391 23.2078 7.93391C25.2866 7.93391 27.4609 8.30727 27.4609 8.30727V13.0116H25.0651C22.7048 13.0116 21.9688 14.4852 21.9688 15.9969V19.5828H27.2383L26.3959 25.1085H21.9688V38.4667C31.052 37.0326 38 29.1242 38 19.5828Z" fill="#24A3FF"/>
</svg>

<svg xmlns="http://www.w3.org/2000/svg" width="38" height="39" fill="none"><path fill="#24A3FF" d="M38 19.583C38 9.025 29.493.467 19 .467S0 9.025 0 19.583c0 9.541 6.948 17.45 16.031 18.884V25.109h-4.824v-5.526h4.824V15.37c0-4.79 2.837-7.437 7.177-7.437 2.079 0 4.253.373 4.253.373v4.705h-2.396c-2.36 0-3.096 1.473-3.096 2.985v3.586h5.27l-.843 5.526h-4.427v13.358C31.052 37.033 38 29.124 38 19.583Z"/></svg>
